X: 3
T: Jump at the Sun %(in Em, Dm)
C: John Kirkpatrick
%O:England
S: PDF from Will Wheeler
Z: Transcription: Alina Larson; chords: Mike Long
R: Jig
M: 6/8
L: 1/8
K:Em
EGB ^A2B|EGB ^A2B|eBB eBB|cBA GAF|
EGB ^A2B|EGB ^A2B| eBB cBA|GAF E3:|
|:eBB efg|fBB agf|eBB efg|f2B c2B|
eBB efg|fBB agf|eBB cBA|GAF E3:|

